X:2
T:Nancy in a Shirttail
C:Sarah Gowan
M:C|
K:Dmix
|:A,2|"D7"D2DE F2FG|A2AB cBcB|"D7"D2DE"Db7" FED2|"C7"C2>D2"Db7"C2 A,2|
"D7"D2DE F2FG|A2AB cBcB|"C7"cBcB cBA2|"C7"FEC2"D7"D2:|
A2|:"D7"d4"C7"c4|"F"A2 AG =FGA2|"D7"D2 DEF2G2|"F"A2B2c2A2|
"D7"d4"C7"c4|"F"A2 AG=FGA2|"D7"D2 D2 "C7"EDC2|"D"D4D4:|
W: © 2007 Sarah Gowan  |  www.sarahgowan.com  |  All rights reserved.
W:"Nancy in a shirttail" was my grandmother's expression for getting caught nekkid.
